assets/logos/dialogflow.svg

<svg width="80" height="80" viewBox="0 0 80 80" fill="none" xmlns="http://www.w3.org/2000/svg">
<path d="M8.02441 19.8037C8.12204 19.202 8.2685 18.6484 8.58581 18.1189C10.4409 18.7447 12.0275 19.8759 13.7117 20.8387C22.2059 25.6043 30.6514 30.4422 39.0969 35.28C39.6827 35.617 40.0732 35.617 40.6346 35.3041C42.5873 34.1728 44.5889 33.1138 46.5416 31.9826C54.7918 27.2891 63.0175 22.5716 71.2433 17.8782C71.8047 18.6724 72 19.5389 72 20.5017C72 30.5625 72 40.6233 72 50.7082C72 52.7059 71.0969 54.2704 69.3394 55.2813C55.1335 63.3684 40.9275 71.4556 26.7216 79.5428C26.4531 79.7112 26.1602 79.8556 25.8917 80.0001C25.7208 80.0001 25.5744 80.0001 25.4035 80.0001C24.3051 79.5187 23.9634 78.6763 23.9634 77.521C24.0122 72.996 23.9634 68.4711 24.0122 63.9461C24.0122 63.1759 23.7925 62.7426 23.0847 62.3335C19.0572 60.0951 15.0786 57.7844 11.0511 55.522C9.26926 54.5351 8.24409 53.1151 8 51.1414C8 40.6955 8 30.2496 8.02441 19.8037Z" fill="#F16C00"/>
<path d="M71.2432 17.9022C63.0174 22.5956 54.7672 27.3132 46.5415 32.0066C44.5888 33.1138 42.5872 34.1969 40.6345 35.3281C40.0975 35.641 39.6826 35.641 39.0968 35.304C30.6513 30.4662 22.2058 25.6283 13.7116 20.8627C12.0273 19.8999 10.4408 18.7687 8.58569 18.1429C9.02505 17.0598 9.87936 16.3137 10.8801 15.7601C19.6185 10.7537 28.3813 5.77147 37.1441 0.81327C38.9747 -0.221694 40.8786 -0.293901 42.7093 0.741063C51.6185 5.77147 60.5033 10.85 69.3882 15.9285C70.1936 16.3859 70.9259 16.9635 71.2432 17.9022Z" fill="#FF9900"/>
</svg>

<svg xmlns="http://www.w3.org/2000/svg" width="80" height="80" fill="none" viewBox="0 0 80 80"><path fill="#f16c00" d="M8.024 19.804c.098-.602.245-1.156.562-1.685 1.855.626 3.441 1.757 5.126 2.72 8.494 4.765 16.94 9.603 25.385 14.441.586.337.976.337 1.538.024 1.952-1.131 3.954-2.19 5.907-3.321 8.25-4.694 16.475-9.411 24.701-14.105.562.794.757 1.66.757 2.624v30.206c0 1.998-.903 3.562-2.66 4.573L26.721 79.543c-.269.168-.562.313-.83.457h-.488c-1.099-.481-1.44-1.324-1.44-2.479.048-4.525 0-9.05.048-13.575 0-.77-.22-1.203-.927-1.612-4.028-2.239-8.006-4.55-12.034-6.812-1.782-.987-2.807-2.407-3.051-4.38 0-10.446 0-20.892.024-31.338"/><path fill="#f90" d="M71.243 17.902c-8.226 4.694-16.476 9.411-24.701 14.105-1.953 1.107-3.955 2.19-5.907 3.321-.538.313-.952.313-1.538-.024-8.446-4.838-16.891-9.676-25.385-14.441-1.685-.963-3.271-2.094-5.126-2.72.439-1.083 1.293-1.83 2.294-2.383A5641 5641 0 0 1 37.144.813C38.974-.222 40.88-.294 42.71.741c8.91 5.03 17.794 10.109 26.68 15.188.805.457 1.537 1.034 1.854 1.973"/></svg>
